!!!!SEGMENT: pl-kk--kk-i-1--014-001_certon-pierre--missa-kyrie.krn
!!!cenid: 15xx:723
!!!COM: Certon, Pierre
!!!COM-rismID: pe30006023
!!!CDT: ~1510-1572/02/23
!!!CNT: French
!!!OPR: [Missa]
!!!OTL: Kyrie
!!!OMV: 001
!!!PDT:
!!!AGN: Sacred; Mass
!!!SMS-siglum: PL-Kk
!!!SMS-shelfmark: Kk.I.1
!!!SMS-shelfwork: 014-001 M
!!!SMS-variant:
!!!SMS-altvar:
!!!NIFC-rismSourceID: 300257968
!!!NIFC-islandoraID: pl-kk:1
!!!URL-pdf-islandora: https://repozytorium.nifc.pl/islandora/object/pl-kk%3A1/datastream/PDF/view
!!!URL-scan: https://polish.musicsources.pl/pl/lokalizacje/galeria/rekopisy/5736 @EN{Scan on Polish Music Sources Website} @PL{Skany w portalu Dziedzictwo Muzyki Polskiej w otwartym dostępie}
!!!ONB-nifc: UWAGA: Cantus (s. 82r-90r, skan 0084-0092), Altus (s. 79r-86v, skan 0271-0279), Tenor (s. 76v-83r, skan 0466-0472), Bassus (s. 76v-85v, skan 0638-0645). Części Mszy: 1. Kyrie, 2. Et in terra, 3. Patrem, 4. Sanctus, 5. Agnus Dei
!!!AIN: 1 alto 1 bass 1 soprn 1 tenor
!!!key:
**kern	**text	**kern	**text	**kern	**text	**kern	**text
*part4	*part4	*part3	*part3	*part2	*part2	*part1	*part1
*staff4	*staff4	*staff3	*staff3	*staff2	*staff2	*staff1	*staff1
*I"BASSVS	*	*I"TENOR	*	*I"ALTVS	*	*I"CANTVS	*
*I'B	*	*I'T	*	*I'A	*	*I'S	*
*Ibass	*	*Itenor	*	*Ialto	*	*Isoprn	*
*ICvox	*	*ICvox	*	*ICvox	*	*ICvox	*
*clefF4	*	*clefC4	*	*clefC4	*	*clefC4	*
*k[]	*	*k[]	*	*k[]	*	*k[]	*
*d:	*	*d:	*	*d:	*	*d:	*
*M2/1	*	*M2/1	*	*M2/1	*	*M2/1	*
*met(C|)	*	*met(C|)	*	*met(C|)	*	*met(C|)	*
=1-	=1-	=1-	=1-	=1-	=1-	=1-	=1-
*stria6	*	*stria6	*	*stria6	*	*stria6	*
!LO:TX:a:t=Autore Petro Certon.:color=red	!	!LO:TX:a:t=Auctore Petro Cetron.:color=red	!	!	!	!	!
!	!	!	!	!LO:TX:a:t=Certon.:color=red	!	!	!
!	!	!	!	!	!	!LO:TX:a:t=Auctore Petro Certon.:color=red	!
1r	.	1D	KI-	0rF	.	0rF	.
1D	KI-	2.F/	-ri-	.	.	.	.
.	.	4G/	-e	.	.	.	.
=2-	=2-	=2-	=2-	=2-	=2-	=2-	=2-
2.F\	-ri-	1A	.	1rF	.	1D	Ki-
4G\	-e	.	.	.	.	.	.
1A	.	2D/	e-	1D	Ky-	2.F/	-ri-
.	.	2.F/	-le-	.	.	.	.
.	.	.	.	.	.	4G/	-e
=3-	=3-	=3-	=3-	=3-	=3-	=3-	=3-
2r	.	.	.	2.F/	-ri-	1A	.
.	.	4G/	-ij-	.	.	.	.
2D/	e-	2A/	-ſon	.	.	.	.
.	.	.	.	4G/	-e	.	.
1.F	-ley-	1rA	.	1A	.	2rF	.
.	.	.	.	.	.	2D/	e-
=4-	=4-	=4-	=4-	=4-	=4-	=4-	=4-
*	*	*	*ij	*	*	*	*
.	.	2A/	KI-	1rA	.	2F/	-ley-
2E\	-son	2.c\	-ri-	.	.	2G/	-ſon
2C/	.	.	.	2r	.	1A	.
.	.	4B\	-e	.	.	.	.
2D/	.	1A\	e-	2A\	ki-	.	.
=5-	=5-	=5-	=5-	=5-	=5-	=5-	=5-
1E	.	.	.	2c\	-ri-	1rA	.
.	.	2G/	-le-	2B\	-e	.	.
0AA	.	2F/	-ij-	2.A/	.	2r	.
*	*	*	*	*	*	*	*ij
.	.	2E/	-ſon	.	.	2A/	Ki-
*	*	*	*Xij	*	*	*	*
.	.	.	.	4G/	.	.	.
=6-	=6-	=6-	=6-	=6-	=6-	=6-	=6-
.	.	2rF	.	4F/	.	1.c	-ri-
.	.	.	.	4E/	.	.	.
.	.	2.A/	.	1e	e-	.	.
2rBB	.	.	.	.	.	.	.
*	*	*custos:F	*	*	*	*	*
.	.	4G/	.	.	.	.	.
*	*ij	*	*	*	*	*	*
!	!	!LO:LB:g=original	!	!	!	!	!
2D/	KI-	4F/	.	1d\	-le-	2B/	.
.	.	4E/	.	.	.	.	.
=7-	=7-	=7-	=7-	=7-	=7-	=7-	=7-
1.F	-ri-	4F/	.	.	.	2.A/	-e
.	.	4D/	.	.	.	.	.
*	*	*lig	*	*	*	*	*
.	.	1A	.	2c\	-i-	.	.
*	*	*	*	*	*	*custos:F	*
.	.	.	.	.	.	4G/	.
!	!	!	!	!	!	!LO:LB:g=original	!
.	.	.	.	2d\	-ſon	4F/	.
.	.	.	.	.	.	4E/	.
2E\	-e	1c\	.	1G/	.	1e\	e-
*	*	*Xlig	*	*	*	*	*
=8-	=8-	=8-	=8-	=8-	=8-	=8-	=8-
2C/	e-	.	.	.	.	.	.
2D/	-le-	2B\	.	2F/	.	1d	-le-
*custos:D	*	*	*	*	*	*	*
1AA	-y-	2.A\	.	1E	.	.	.
.	.	.	.	.	.	2c\	-y-
.	.	4G/	.	.	.	.	.
!LO:LB:g=original	!	!	!	!	!	!	!
=9-	=9-	=9-	=9-	=9-	=9-	=9-	=9-
0D	-son	4A/	.	2D/	.	1d	-ſon
*	*Xij	*	*	*	*	*	*Xij
.	.	4F/	.	.	.	.	.
*	*	*	*	*custos:F	*	*	*
.	.	2.B/	.	2D/	ky-	.	.
!	!	!	!	!LO:LB:g=original	!	!	!
.	.	.	.	1.F	-ri-	1r	.
.	.	4A/	.	.	.	.	.
.	.	1A\	.	.	.	.	.
=10-	=10-	=10-	=10-	=10-	=10-	=10-	=10-
0r	.	.	.	.	.	2A/	ki-
.	.	2G/	.	2E/	-e	2.c\	-ri-
.	.	2A/	.	2C/	e-	.	.
.	.	.	.	.	.	4B/	-e
.	.	2A/	e-	2D/	-lei-	1A\	.
=11-	=11-	=11-	=11-	=11-	=11-	=11-	=11-
1r	.	2c\	-ley-	1E	-ſon	.	.
.	.	2B\	-son	.	.	2G/	e-
2r	.	1A	.	2.F/	.	2A/	-ley-
2D/	ki-	.	.	.	.	2d\	.
.	.	.	.	4G/	.	.	.
=12-	=12-	=12-	=12-	=12-	=12-	=12-	=12-
1.F	-ri-	2.A/	.	4A/	.	2c\	.
.	.	.	.	4B/	.	.	.
.	.	.	.	2c\	.	4A\	.
.	.	4G/	.	.	.	4B\	.
.	.	4F/	.	2A/	.	4c\	.
.	.	4E/	.	.	.	4d\	.
2E\	-e	1G/	.	2.c\	.	2.e\	.
=13-	=13-	=13-	=13-	=13-	=13-	=13-	=13-
2C/	e-	.	.	.	.	.	.
.	.	.	.	4B/	.	4d\	.
2D/	-ley-	2F/	.	4A/	.	1d	.
.	.	.	.	4G/	.	.	.
1AA	-son.	1E	.	1A	.	.	.
.	.	.	.	.	.	2c\	-ſon
=14-	=14-	=14-	=14-	=14-	=14-	=14-	=14-
!LO:N:vis=00	!	!LO:N:vis=00	!	!LO:N:vis=00	!	!	!
0D\;>	.	0D;>	.	0A;>	.	0d;<	.
!	!	!LO:LB:g=original	!	!	!	!LO:LB:g=original	!
=15-	=15-	=15-	=15-	=15-	=15-	=15-	=15-
00r	.	00r	.	1d	Chri-	00r	.
.	.	.	.	2d\	-ſte	.	.
.	.	.	.	2d\	e-	.	.
=16-	=16-	=16-	=16-	=16-	=16-	=16-	=16-
.	.	.	.	1c	-lei-	.	.
.	.	.	.	2.A/	-ſon	.	.
.	.	.	.	4G/	.	.	.
=17-	=17-	=17-	=17-	=17-	=17-	=17-	=17-
1D	Chri-	00r	.	2A/	.	00r	.
.	.	.	.	1B	.	.	.
2D/	-ste	.	.	.	.	.	.
2D/	e-	.	.	1A\	.	.	.
=18-	=18-	=18-	=18-	=18-	=18-	=18-	=18-
1C	-le-	.	.	.	.	.	.
*	*	*	*	*custos:A	*	*	*
.	.	.	.	2G/	.	.	.
!	!	!	!	!LO:LB:g=original	!	!	!
2AA/	-i-	.	.	2A/	.	.	.
1D/	-ſon	.	.	1F/	.	.	.
=19-	=19-	=19-	=19-	=19-	=19-	=19-	=19-
.	.	1A	CHri-	.	.	0r	.
4C/	.	.	.	4E/	.	.	.
4BB/	.	.	.	4D/	.	.	.
2C/	.	2A/	-ste	2E/	.	.	.
2D/	.	2A/	e-	2F/	.	.	.
=20-	=20-	=20-	=20-	=20-	=20-	=20-	=20-
2BB/	.	1G	-lei-	2D/	.	1r	.
1C	.	.	.	4E/	.	.	.
.	.	.	.	4F/	.	.	.
.	.	2E/	-ſon	4G/	.	2rc	.
.	.	.	.	4E/	.	.	.
4BB/	.	1F/	.	1A\	.	2d\	Chri-
*custos:BB	*	*	*	*	*	*	*
4AA/	.	.	.	.	.	.	.
!LO:LB:g=original	!	!	!	!	!	!	!
=21-	=21-	=21-	=21-	=21-	=21-	=21-	=21-
1BB	.	.	.	.	.	2d\	-ſte
.	.	4E/	.	2G/	.	2d\	e-
.	.	4D/	.	.	.	.	.
00AA	.	2E/	.	1.A	.	1c	-ley-
.	.	4A/	.	.	.	.	.
.	.	4B/	.	.	.	.	.
=22-	=22-	=22-	=22-	=22-	=22-	=22-	=22-
.	.	4c\	.	.	.	00A\	-ſon
.	.	4d\	.	.	.	.	.
.	.	1e	.	2G/	.	.	.
.	.	.	.	2F/	.	.	.
.	.	1d\	.	4E/	.	.	.
.	.	.	.	4D/	.	.	.
=23-	=23-	=23-	=23-	=23-	=23-	=23-	=23-
.	.	.	.	1E	.	.	.
.	.	2c\	.	.	.	.	.
2rBB	.	2d\	.	1D	.	.	.
*	*	*	*ij	*	*	*	*
2D/	Chri-	2F/	CHri-	.	.	.	.
=24-	=24-	=24-	=24-	=24-	=24-	=24-	=24-
2D/	-ſte	2F/	-ste	1rF	.	1A	.
2D/	e-	2D/	e-	.	.	.	.
*	*	*custos:A	*	*	*	*	*
2C/	-le-	2E/	-le-	2rF	.	2r	.
*	*	*	*	*	*ij	*	*ij
!	!	!LO:LB:g=original	!	!	!	!	!
2D/	-i-	1A\	.	2F/	Chri-	2d\	Chri-
=25-	=25-	=25-	=25-	=25-	=25-	=25-	=25-
1BB	-ſon	.	.	2F/	-ſte	2d\	-ſte
.	.	2G/	-i-	2D/	e-	2d\	e-
1AA	.	2.A/	-ſon	2E/	-le-	1c	-le-
.	.	.	.	1A\	.	.	.
.	.	4B/	.	.	.	.	.
=26-	=26-	=26-	=26-	=26-	=26-	=26-	=26-
0rD	.	2c\	.	.	.	2A/	.
*	*	*	*	*custos:F	*	*	*
.	.	2d\	.	2G/	.	2.B/	.
*	*	*	*	*lig	*	*	*
!	!	!	!	!LO:LB:g=original	!	!	!
.	.	4d\	.	1F	-i-	.	.
.	.	4c\	.	.	.	4A/	.
.	.	4B\	.	.	.	1A\	.
.	.	4A\	.	.	.	.	.
=27-	=27-	=27-	=27-	=27-	=27-	=27-	=27-
1rD	.	1B	.	1E	.	.	.
*	*	*	*	*	*	*custos:A	*
.	.	.	.	.	.	2G/	-y-
*	*	*	*	*Xlig	*	*	*
!	!	!	!	!	!	!LO:LB:g=original	!
2rBB	.	2A/	.	1A	-ſon	2A/	-ſon
*	*ij	*	*Xij	*	*Xij	*	*Xij
2F\	Chri-	2A/	e-	.	.	1c\	Chri-
=28-	=28-	=28-	=28-	=28-	=28-	=28-	=28-
2E\	-ſte	2G/	-ley-	2r	.	.	.
2D/	e-	2F/	-ſon	2f\	Chri-	2B\	.
2C/	-le-	1.A	.	2e\	.	2c\	-ste
2D/	-i-	.	.	2d\	-ſte	2f\	e-
=29-	=29-	=29-	=29-	=29-	=29-	=29-	=29-
00AA	-ſon	.	.	2.c\	e-	2e\	-ley-
*	*Xij	*	*	*	*	*	*
.	.	4G/	.	.	.	2d\	.
.	.	4F/	.	4B/	-ley-	.	.
.	.	2E/	.	4A/	.	2c\	.
.	.	.	.	4G/	.	.	.
.	.	2.c\	.	2A/	.	1e\	.
=30-	=30-	=30-	=30-	=30-	=30-	=30-	=30-
.	.	.	.	2F/	.	.	.
.	.	4B\	.	.	.	.	.
.	.	4A/	.	4E/	.	1d	.
.	.	4G/	.	4D/	.	.	.
!	!	!LO:N:vis=00	!	!	!	!	!
.	.	[y1A;	.	1E	.	.	.
.	.	.	.	.	.	2c\	.
=31-	=31-	=31-	=31-	=31-	=31-	=31-	=31-
*	*	*	*	*lig	*	*	*
2rBB	.	0A_yy	.	1D	-ſon.	1d	.
2.F\	e-	.	.	.	.	.	.
.	.	.	.	1F	.	2A/	.
4E/	-le-	.	.	.	.	.	.
1D/	-i-	.	.	.	.	1f\	.
*	*	*	*	*Xlig	*	*	*
=32-	=32-	=32-	=32-	=32-	=32-	=32-	=32-
.	.	00A]yy	.	2D/	.	.	.
2C/	-ſon	.	.	2E/	.	2e\	.
1D	.	.	.	1F	.	1d	.
=33-	=33-	=33-	=33-	=33-	=33-	=33-	=33-
*	*	*	*	*	*	*custos:f	*
*	*	*	*	*custos:d	*	*	*
!	!	!	!	!	!	!LO:TX:t=P:problem=dół karty urwany	!
!LO:N:vis=00	!	!	!	!LO:N:vis=00	!	!LO:N:vis=00	!
0AA;>	.	.	.	0E;>	.	0c;<	-so
!LO:LB:g=original	!	!LO:PB:g=original	!	!LO:PB:g=original	!	!LO:PB:g=original	!
=34-	=34-	=34-	=34-	=34-	=34-	=34-	=34-
*	*	*M2/1	*	*M2/1	*	*M2/1	*
*	*	*	*	*met(C|)	*	*met(C|)	*
0rA	.	0r	.	00rc	.	1.d	KI-
.	.	.	.	.	.	2c\	-ri-
=35-	=35-	=35-	=35-	=35-	=35-	=35-	=35-
2rF	.	1r	.	.	.	1B	-e
1G	KI-	.	.	.	.	.	.
.	.	1.d	Ki-	.	.	1A	.
2F\	-ri-	.	.	.	.	.	.
=36-	=36-	=36-	=36-	=36-	=36-	=36-	=36-
2E\	-e	.	.	1r	.	1.e	.
1A	e-	2c\	-ri-	.	.	.	.
.	.	1B	-e	2rc	.	.	.
2G\	-lei-	.	.	2.d\	KI-	2B\	.
=37-	=37-	=37-	=37-	=37-	=37-	=37-	=37-
1F	-ſon	2A/	e-	.	.	2c\	.
.	.	.	.	4c\	-ri-	.	.
.	.	1A	-ley-	4B/	-e	2d\	.
.	.	.	.	4A/	.	.	.
1E	.	.	.	1B	.	2.e\	.
.	.	2G/	-son	.	.	.	.
.	.	.	.	.	.	4d\	.
=38-	=38-	=38-	=38-	=38-	=38-	=38-	=38-
1AA	.	2A/	.	1A	.	4c\	.
.	.	.	.	.	.	4B\	.
.	.	2E/	.	.	.	1e	.
0rBB	.	2G/	.	2r	.	.	.
.	.	2A/	.	1A\	ki-	4d\	.
.	.	.	.	.	.	4c\	.
=39-	=39-	=39-	=39-	=39-	=39-	=39-	=39-
.	.	1E	.	.	.	1B	.
.	.	.	.	2G/	-ri-	.	.
2rBB	.	2rF	.	2.F/	-e	2A/	.
*	*ij	*	*ij	*	*	*	*
1D\	e-	1A\	KI-	.	.	1f\	e-
.	.	.	.	4E/	.	.	.
=40-	=40-	=40-	=40-	=40-	=40-	=40-	=40-
.	.	.	.	2F/	e-	.	.
2C/	.	2E/	-ri-	2.G/	-lei-	1e	-le-
2BB/	-le-	2F/	-e	.	.	.	.
.	.	.	.	4F/	-ſon	.	.
2BB/	-i-	2G/	.	4E/	.	1d\	-y-
.	.	.	.	4D/	.	.	.
=41-	=41-	=41-	=41-	=41-	=41-	=41-	=41-
1AA	-ſon	1A	.	1E	.	.	.
*	*Xij	*	*	*	*	*	*
*	*	*	*	*	*	*custos:d	*
.	.	.	.	.	.	2c\	-son
!	!	!	!	!	!	!LO:LB:g=original	!
2rBB	.	2F/	.	1D	.	2d\	.
1D\	ki-	1A\	.	.	.	2D/	.
=42-	=42-	=42-	=42-	=42-	=42-	=42-	=42-
.	.	.	.	1rD	.	2F/	.
*	*	*custos:G	*	*	*	*	*
2C/	-ri-	2A/	e-	.	.	2E/	.
!	!	!LO:LB:g=original	!	!	!	!	!
2BB/	-e	2G/	-le-	2rD	.	1D	.
1D\	e-	2.F/	.	2D/	.	.	.
=43-	=43-	=43-	=43-	=43-	=43-	=43-	=43-
*	*	*	*	*	*	*lig	*
.	.	.	.	2F/	.	1A	.
.	.	4E/	.	.	.	.	.
2C/	-lei-	1A	.	2E/	.	.	.
1BB	-ſon	.	.	1D	.	1d	.
.	.	2G/	-y-	.	.	.	.
*	*	*	*	*	*	*Xlig	*
=44-	=44-	=44-	=44-	=44-	=44-	=44-	=44-
*	*	*	*	*custos:A	*	*	*
2.AA/	.	2.A/	-son	1E	.	2c\	.
*	*	*	*Xij	*	*	*	*
.	.	.	.	.	.	2A/	ki-
*custos:C	*	*	*	*	*	*	*
4BB/	.	8G/L	.	.	.	.	.
.	.	8F/J	.	.	.	.	.
!LO:PB:g=original	!	!	!	!LO:LB:g=original	!	!	!
2C/	.	2E/	.	2r	.	2A/	-ri-
2D/	.	2D/	.	2A/	Ki-	2A/	-e
=45-	=45-	=45-	=45-	=45-	=45-	=45-	=45-
2AA/	.	1rF	.	2A/	-ri-	1c	e-
2A\	.	.	.	2A/	-e	.	.
2A\	.	2rF	.	2.c\	e-	2A/	-ley-
2A\	.	2A/	ki-	.	.	2.c\	-ſon
.	.	.	.	4B/	-ley-	.	.
=46-	=46-	=46-	=46-	=46-	=46-	=46-	=46-
*	*ij	*	*	*	*	*	*
2.c\	ki-	2A/	-ri-	4A/	.	.	.
.	.	.	.	4G/	.	4B/	.
.	.	2A/	-e	4F/	.	4A/	.
4B\	.	.	.	4G/	.	4G/	.
4A\	.	1.c	e-	4A/	.	1F	.
4G\	.	.	.	4B/	.	.	.
1A\	-ri-	.	.	4c/	.	.	.
.	.	.	.	4d/	.	.	.
=47-	=47-	=47-	=47-	=47-	=47-	=47-	=47-
.	.	.	.	4e/	.	1rA	.
.	.	.	.	4c/	.	.	.
2G\	.	2B\	-ley-	2.d\	.	.	.
*col	*	*	*	*	*	*	*
2.F\	.	2.A/	.	.	.	2r	.
.	.	.	.	4B/	.	.	.
.	.	.	.	2c\	.	1f\	e-
4E/	.	4G/	.	.	.	.	.
*Xcol	*	*	*	*	*	*	*
=48-	=48-	=48-	=48-	=48-	=48-	=48-	=48-
2D/	-e	1A	.	2d\	.	.	.
2C/	.	.	.	2e\	.	1e	-ley
2D/	.	2F/	.	2A/	.	.	.
2GG/	e-	2G/	.	2B/	.	1d\	.
=49-	=49-	=49-	=49-	=49-	=49-	=49-	=49-
*	*	*custos:D	*	*	*	*	*
1AA	-lei-	1E	.	1A	.	.	.
*	*	*	*	*	*	*custos:d	*
.	.	.	.	.	.	2c\	.
!	!	!LO:LB:g=original	!	!	!	!LO:LB:g=original	!
0D	-ſon	0D	-ſon	1F	-ſon	2d\	.
*	*Xij	*	*	*	*	*	*ij
.	.	.	.	.	.	2A/	ki-
=50-	=50-	=50-	=50-	=50-	=50-	=50-	=50-
.	.	.	.	2rF	.	2A/	-ri-
.	.	.	.	2A/	ky-	2A/	-e
2r	.	1rF	.	2A/	-ri-	1c	e-
*	*	*	*	*custos:c	*	*	*
2A\	ki-	.	.	2A/	-e	.	.
!	!	!	!	!LO:LB:g=original	!	!	!
=51-	=51-	=51-	=51-	=51-	=51-	=51-	=51-
2A\	-rie	2rF	.	2.c\	.	2A/	.
2A\	e-	2A/	ki-	.	.	2.c\	-le-
.	.	.	.	4B/	.	.	.
2.c\	-le-	2A/	-ri-	4A/	.	.	.
.	.	.	.	4G/	.	4B/	.
.	.	2A/	-e	4F/	.	4A/	-y-
4B\	-i-	.	.	4G/	.	4G/	.
=52-	=52-	=52-	=52-	=52-	=52-	=52-	=52-
4A\	-ſon	1.c	e-	4A/	.	1F	-ſon
*	*ij	*	*	*	*	*	*Xij
*custos:A	*	*	*	*	*	*	*
4G\	.	.	.	4B/	.	.	.
!LO:LB:g=original	!	!	!	!	!	!	!
1A	ki-	.	.	4c\	.	.	.
.	.	.	.	4d\	.	.	.
.	.	.	.	4e\	.	1rA	.
.	.	.	.	4c\	.	.	.
2G\	.	2B\	-ley-	2.d\	.	.	.
=53-	=53-	=53-	=53-	=53-	=53-	=53-	=53-
2.F\	-ri-	2.A\	.	.	.	2r	.
.	.	.	.	4B/	.	.	.
.	.	.	.	2c\	.	2f\	ki-
4E/	.	4G/	.	.	.	.	.
2D/	-e	1A	.	2d\	.	2f\	-ri-
2C/	.	.	.	2e\	e-	1e\	-e-
=54-	=54-	=54-	=54-	=54-	=54-	=54-	=54-
2D/	.	2F/	.	2A/	-lei-	.	.
2GG/	e-	2G/	.	2B/	-ſon.	1d	-le-
!	!	!	!	!LO:N:vis=00	!	!	!
1AA	-lei-	1E	.	0.A;>\	.	.	.
.	.	.	.	.	.	2c\	-y-
=55-	=55-	=55-	=55-	=55-	=55-	=55-	=55-
!LO:N:vis=00	!	!LO:N:vis=00	!	!	!	!LO:N:vis=00	!
0D;>	-ſon	0D;>	-ſon	.	.	0d;<	-ſon.
*	*Xij	*	*	*	*	*	*
=-	=-	=-	=-	=-	=-	=-	=-
*-	*-	*-	*-	*-	*-	*-	*-
!!!system-decoration: [(s1,s2,s3,s4)]
!!!RDF**kern: > = above
!!!RDF**kern: < = below
!!!ENC: Mateusz Solarz
!!!END: 2022-02-21
!!!EED: Antoni Szymański
!!!EEV: 2022-02-26
